icons/svg/additional/aerodrome_type_military.svg

<?xml version="1.0" encoding="UTF-8" standalone="no"?>
<!-- Created with Inkscape (http://www.inkscape.org/) -->

<svg
   xmlns:dc="http://purl.org/dc/elements/1.1/"
   xmlns:cc="http://creativecommons.org/ns#"
   xmlns:rdf="http://www.w3.org/1999/02/22-rdf-syntax-ns#"
   xmlns:svg="http://www.w3.org/2000/svg"
   xmlns="http://www.w3.org/2000/svg"
   xmlns:sodipodi="http://sodipodi.sourceforge.net/DTD/sodipodi-0.dtd"
   xmlns:inkscape="http://www.inkscape.org/namespaces/inkscape"
   version="1.0"
   width="580"
   height="580"
   id="svg2"
   sodipodi:version="0.32"
   inkscape:version="0.91 r"
   sodipodi:docname="military_airfield.svg"
   inkscape:output_extension="org.inkscape.output.svg.inkscape">
  <metadata
     id="metadata1976">
    <rdf:RDF>
      <cc:Work
         rdf:about="">
        <dc:format>image/svg+xml</dc:format>
        <dc:type
           rdf:resource="http://purl.org/dc/dcmitype/StillImage" />
        <cc:license
           rdf:resource="http://web.resource.org/cc/PublicDomain" />
        <dc:language>en</dc:language>
      </cc:Work>
    </rdf:RDF>
  </metadata>
  <sodipodi:namedview
     inkscape:window-height="1005"
     inkscape:window-width="1280"
     inkscape:pageshadow="2"
     inkscape:pageopacity="0.0"
     guidetolerance="10.0"
     gridtolerance="10.0"
     objecttolerance="10.0"
     borderopacity="1.0"
     bordercolor="#666666"
     pagecolor="#ffffff"
     id="base"
     inkscape:zoom="0.46083856"
     inkscape:cx="230.87517"
     inkscape:cy="428.35739"
     inkscape:window-x="1912"
     inkscape:window-y="29"
     inkscape:current-layer="svg2"
     showgrid="false"
     inkscape:window-maximized="0" />
  <defs
     id="defs4">
    <inkscape:perspective
       sodipodi:type="inkscape:persp3d"
       inkscape:vp_x="0 : 290 : 1"
       inkscape:vp_y="0 : 1000 : 0"
       inkscape:vp_z="580 : 290 : 1"
       inkscape:persp3d-origin="290 : 193.33333 : 1"
       id="perspective3653" />
  </defs>
  <g
     id="g1327">
    <path
       d="M 66.275,1.768 C 24.94,1.768 1.704,23.139 1.704,66.804 L 1.704,516.927 C 1.704,557.771 22.6,579.156 63.896,579.156 L 515.92,579.156 C 557.227,579.156 578.149,558.842 578.149,516.927 L 578.149,66.804 C 578.149,24.203 557.227,1.768 514.628,1.768 C 514.624,1.768 66.133,1.625 66.275,1.768 z "
       style="fill:#111;stroke:#eee;stroke-width:3.40799999"
       id="path1329" />
  </g>
  <g
     transform="translate(-1.1800265e-6,0)"
     id="g7"
     inkscape:output_extension="org.inkscape.output.svg.inkscape"
     inkscape:version="0.46"
     sodipodi:docname="waste_bin.svg"
     sodipodi:version="0.32">
    <g
       id="layer1"
       inkscape:groupmode="layer"
       inkscape:label="Layer 1">
      <path
         style="fill:#ffffff"
         inkscape:connector-curvature="0"
         id="path1368"
         d="m 287.412,537.18 c -0.612,-7.591 -1.566,-17.344 -2.119,-21.673 l -1.006,-7.873 -10.106,-0.492 -10.105,-0.493 -1.868,-6.678 c -1.077,-3.85 -3.037,-6.904 -4.628,-7.21 -2.142,-0.412 -39.77,8.64 -58.622,14.102 -2.6,0.754 -2.924,-0.521 -2.901,-11.394 l 0.026,-12.241 29.251,-46.776 29.251,-46.775 -0.066,-14.287 -0.066,-14.287 -46.358,47.323 c -25.498,26.027 -47.13,47.295 -48.074,47.261 -2.872,-0.104 -11.396,-35.854 -10.141,-42.538 0.636,-3.388 11.186,-21.284 25.069,-42.527 15.522,-23.751 31.969,-51.942 46.658,-79.979 l 22.685,-43.302 1.179,-18.821 1.179,-18.821 9.595,0 9.595,0 1.064,-7.762 c 0.585,-4.27 1.064,-14.832 1.064,-23.471 0,-19.121 4.466,-81.235 6.836,-95.076 2.025,-11.824 13.695,-54.372 14.913,-54.372 1.221,0 12.891,42.56 14.91,54.372 2.425,14.185 6.831,73.906 6.852,92.849 0.009,8.741 0.49,19.845 1.071,24.676 l 1.056,8.784 9.621,0 9.622,0 1.171,18.821 1.17,18.821 22.765,43.497 c 14.427,27.566 30.891,55.887 44.95,77.325 25.374,38.688 27.343,42.161 27.343,48.227 0,6.848 -8.943,39.229 -10.852,39.293 -0.934,0.032 -22.555,-21.236 -48.05,-47.262 l -46.354,-47.317 -0.045,14.22 -0.045,14.22 29.251,46.776 29.251,46.775 0,12.309 c 0,10.931 -0.328,12.215 -2.928,11.461 -13.226,-3.832 -55.65,-14.434 -57.76,-14.434 -2.608,0 -3.209,1.19 -5.271,10.456 -0.985,4.429 -1.422,4.601 -11.65,4.601 l -10.627,0 -1.017,7.947 c -0.559,4.37 -1.516,14.156 -2.129,21.747 -0.612,7.592 -1.649,13.804 -2.305,13.804 -0.656,0 -1.693,-6.215 -2.305,-13.806 z" />
    </g>
  </g>
</svg>

<svg width="580" height="580" viewBox="0 0 580 580" fill="none" xmlns="http://www.w3.org/2000/svg">
<path d="M287.412 537.18C286.8 529.589 285.846 519.836 285.293 515.507L284.287 507.634L274.181 507.142L264.076 506.649L262.208 499.971C261.131 496.121 259.171 493.067 257.58 492.761C255.438 492.349 217.81 501.401 198.958 506.863C196.358 507.617 196.034 506.342 196.057 495.469L196.083 483.228L225.334 436.452L254.585 389.677L254.519 375.39L254.453 361.103L208.095 408.426C182.597 434.453 160.965 455.721 160.021 455.687C157.149 455.583 148.625 419.833 149.88 413.149C150.516 409.761 161.066 391.865 174.949 370.622C190.471 346.871 206.918 318.68 221.607 290.643L244.292 247.341L245.471 228.52L246.65 209.699H256.245H265.84L266.904 201.937C267.489 197.667 267.968 187.105 267.968 178.466C267.968 159.345 272.434 97.2311 274.804 83.3901C276.829 71.5661 288.499 29.0181 289.717 29.0181C290.938 29.0181 302.608 71.5781 304.627 83.3901C307.052 97.5751 311.458 157.296 311.479 176.239C311.488 184.98 311.969 196.084 312.55 200.915L313.606 209.699H323.227H332.849L334.02 228.52L335.19 247.341L357.955 290.838C372.382 318.404 388.846 346.725 402.905 368.163C428.279 406.851 430.248 410.324 430.248 416.39C430.248 423.238 421.305 455.619 419.396 455.683C418.462 455.715 396.841 434.447 371.346 408.421L324.992 361.104L324.947 375.324L324.902 389.544L354.153 436.32L383.404 483.095V495.404C383.404 506.335 383.076 507.619 380.476 506.865C367.25 503.033 324.826 492.431 322.716 492.431C320.108 492.431 319.507 493.621 317.445 502.887C316.46 507.316 316.023 507.488 305.795 507.488H295.168L294.151 515.435C293.592 519.805 292.635 529.591 292.022 537.182C291.41 544.774 290.373 550.986 289.717 550.986C289.061 550.986 288.024 544.771 287.412 537.18V537.18Z" fill="white"/>
</svg>
